X: 1
T: Hogmanay Jig
C: Andrew Rankine
M: 6/8
L: 1/8
K: A
A2B \
|: "A"c2c cdc \
| B2A A2B \
| c2c "F#m"cBA \
| "Bm"G2F "B/D#"F3 \
| "E7"G2G GAG \
| F2E E2F |
|1 "E7"EGB ede \
| "A"d2c cAB \
:|2 "E7"EGB dcB \
| "A"A3 A2B \
|: "A"c2c "E/G#"B2B \
| "F#m"A2A "E"G2G \
| "D"F2F "B/D#"FEF |
| "E"G3 GEG \
| "Bm"d2d "A"c2c \
| "E/G#"B2B "F#m"A2A \
|1 "E"GAG "D"FGF \
| "E7"E3 ECE \
:|2 "E7"EGB dcB \
| "A"A3 |]

%%sep 1 1 500

